X: 1029
T: Wildwood Flower
C:The Carter Family
B: jims roots
M:4/4
L:1/8
Q: 1/4=100
K:D
V:1 
F2G2 | "D"[A4F] B2d2 | [F4D] G2F2 | "A"[E4C] F2E2 | "D"[D4A,] F2G2 |
"D"[A4F] B2d2 | [F4D] G2F2 | "A"[E4C] F2E2 | "D"[D4A,] A2d2 ||
|: "D"[f4d] f2e2 | [d4F] A2A2 | "G"[B4G] d2B2 | "D"[A4F] D2E2 | [F4D] F2E2 |
V:F2D 
A2 [A2F]F2 | "A"[E2C]E2 F2E2 | [1"D"[D4A,] F2A2:| [2"D"[D4A,] z4 |]
% abcbook-tune_id 6298c297a975f338b4036231


% abcbook-boost 0
% abcbook-tablature 
% abcbook-transpose 
% abcbook-lastupdated 1654178456973
% abcbook-soundfonts 
% abcbook-repeats 1


